packages/clay-css/src/images/icons/gallery.svg

<!--
* SPDX-FileCopyrightText: © 2020 Liferay, Inc. <https://liferay.com>
* SPDX-FileCopyrightText: © 2020 Contributors to the project Clay <https://github.com/liferay/clay/graphs/contributors>
*
* SPDX-License-Identifier: BSD-3-Clause
-->
<svg  viewBox="0 0 16 16" xmlns="http://www.w3.org/2000/svg">
<path class="lexicon-icon-outline" d="M0 14.7C0 14.3134 0.313401 14 0.7 14H3.3C3.6866 14 4 14.3134 4 14.7V15.3C4 15.6866 3.6866 16 3.3 16H0.7C0.313401 16 0 15.6866 0 15.3V14.7Z" />
<path class="lexicon-icon-outline" d="M6 14.7C6 14.3134 6.3134 14 6.7 14H9.3C9.6866 14 10 14.3134 10 14.7V15.3C10 15.6866 9.6866 16 9.3 16H6.7C6.3134 16 6 15.6866 6 15.3V14.7Z" />
<path class="lexicon-icon-outline" d="M12 14.7C12 14.3134 12.3134 14 12.7 14H15.3C15.6866 14 16 14.3134 16 14.7V15.3C16 15.6866 15.6866 16 15.3 16H12.7C12.3134 16 12 15.6866 12 15.3V14.7Z" />
<path class="lexicon-icon-outline" d="M14 12H2C1 12 0 10.8026 0 9.6V2.4C0.000625 1.20563 1.00063 0 2 0H14C15 0.00075 16 1.19738 16 2.4V9.6C16 10.8011 15.0006 12 14 12ZM2 2V10H14V2H2Z" />
</svg>

<!--
* SPDX-FileCopyrightText: © 2020 Liferay, Inc. <https://liferay.com>
* SPDX-FileCopyrightText: © 2020 Contributors to the project Clay <https://github.com/liferay/clay/graphs/contributors>
*
* SPDX-License-Identifier: BSD-3-Clause
-->
<svg xmlns="http://www.w3.org/2000/svg" viewBox="0 0 16 16"><path class="lexicon-icon-outline" d="M0 14.7a.7.7 0 0 1 .7-.7h2.6a.7.7 0 0 1 .7.7v.6a.7.7 0 0 1-.7.7H.7a.7.7 0 0 1-.7-.7v-.6Zm6 0a.7.7 0 0 1 .7-.7h2.6a.7.7 0 0 1 .7.7v.6a.7.7 0 0 1-.7.7H6.7a.7.7 0 0 1-.7-.7v-.6Zm6 0a.7.7 0 0 1 .7-.7h2.6a.7.7 0 0 1 .7.7v.6a.7.7 0 0 1-.7.7h-2.6a.7.7 0 0 1-.7-.7v-.6Zm2-2.7H2c-1 0-2-1.197-2-2.4V2.4C0 1.206 1 0 2 0h12c1 0 2 1.197 2 2.4v7.2c0 1.201-1 2.4-2 2.4ZM2 2v8h12V2H2Z"/></svg>
